images/ProcessIcons/Establish Goals.svg

<svg width="24" height="24" viewBox="0 0 24 24" fill="none" xmlns="http://www.w3.org/2000/svg">
<path d="M12 2C9.23958 2 6.88281 2.97656 4.92969 4.92969C2.97656 6.88281 2 9.23958 2 12C2 14.7604 2.97656 17.1172 4.92969 19.0703C6.88281 21.0234 9.23958 22 12 22C14.7604 22 17.1172 21.0234 19.0703 19.0703C21.0234 17.1172 22 14.7604 22 12C22 9.23958 21.0234 6.88281 19.0703 4.92969C17.1172 2.97656 14.7604 2 12 2ZM12 20.3203C9.70833 20.3203 7.7487 19.5065 6.12109 17.8789C4.49349 16.2513 3.67969 14.2917 3.67969 12C3.67969 9.70833 4.49349 7.7487 6.12109 6.12109C7.7487 4.49349 9.70833 3.67969 12 3.67969C14.2917 3.67969 16.2513 4.49349 17.8789 6.12109C19.5065 7.7487 20.3203 9.70833 20.3203 12C20.3203 14.2917 19.5065 16.2513 17.8789 17.8789C16.2513 19.5065 14.2917 20.3203 12 20.3203ZM12 6.17969C10.3854 6.17969 9.01172 6.74609 7.87891 7.87891C6.74609 9.01172 6.17969 10.3854 6.17969 12C6.17969 13.6146 6.74609 14.9883 7.87891 16.1211C9.01172 17.2539 10.3854 17.8203 12 17.8203C13.6146 17.8203 14.9883 17.2539 16.1211 16.1211C17.2539 14.9883 17.8203 13.6146 17.8203 12C17.8203 10.3854 17.2539 9.01172 16.1211 7.87891C14.9883 6.74609 13.6146 6.17969 12 6.17969ZM12 16.1797C10.8281 16.1797 9.83854 15.776 9.03125 14.9688C8.22396 14.1615 7.82031 13.1719 7.82031 12C7.82031 10.8281 8.22396 9.83854 9.03125 9.03125C9.83854 8.22396 10.8281 7.82031 12 7.82031C13.1719 7.82031 14.1615 8.22396 14.9688 9.03125C15.776 9.83854 16.1797 10.8281 16.1797 12C16.1797 13.1719 15.776 14.1615 14.9688 14.9688C14.1615 15.776 13.1719 16.1797 12 16.1797ZM13.6797 12C13.6797 12.4688 13.5169 12.8659 13.1914 13.1914C12.8659 13.5169 12.4688 13.6797 12 13.6797C11.5313 13.6797 11.1341 13.5169 10.8086 13.1914C10.4831 12.8659 10.3203 12.4688 10.3203 12C10.3203 11.5313 10.4831 11.1341 10.8086 10.8086C11.1341 10.4831 11.5313 10.3203 12 10.3203C12.4688 10.3203 12.8659 10.4831 13.1914 10.8086C13.5169 11.1341 13.6797 11.5313 13.6797 12Z" fill="black"/>
</svg>

<svg xmlns="http://www.w3.org/2000/svg" width="24" height="24" fill="none" xmlns:v="https://vecta.io/nano"><path d="M12 2a9.63 9.63 0 0 0-7.07 2.93A9.63 9.63 0 0 0 2 12a9.63 9.63 0 0 0 2.93 7.07A9.63 9.63 0 0 0 12 22a9.63 9.63 0 0 0 7.07-2.93A9.63 9.63 0 0 0 22 12a9.63 9.63 0 0 0-2.93-7.07A9.63 9.63 0 0 0 12 2zm0 18.32a8.01 8.01 0 0 1-5.879-2.441A8.01 8.01 0 0 1 3.68 12a8.01 8.01 0 0 1 2.441-5.879A8.01 8.01 0 0 1 12 3.68a8.01 8.01 0 0 1 5.879 2.441A8.01 8.01 0 0 1 20.32 12a8.01 8.01 0 0 1-2.441 5.879A8.01 8.01 0 0 1 12 20.32zM12 6.18c-1.615 0-2.988.566-4.121 1.699S6.18 10.385 6.18 12s.566 2.988 1.699 4.121S10.385 17.82 12 17.82s2.988-.566 4.121-1.699S17.82 13.615 17.82 12s-.566-2.988-1.699-4.121S13.615 6.18 12 6.18zm0 10c-1.172 0-2.161-.404-2.969-1.211S7.82 13.172 7.82 12s.404-2.161 1.211-2.969S10.828 7.82 12 7.82s2.162.404 2.969 1.211S16.18 10.828 16.18 12s-.404 2.162-1.211 2.969S13.172 16.18 12 16.18zM13.68 12a1.62 1.62 0 0 1-.488 1.191A1.62 1.62 0 0 1 12 13.68a1.62 1.62 0 0 1-1.191-.488A1.62 1.62 0 0 1 10.32 12a1.62 1.62 0 0 1 .488-1.191A1.62 1.62 0 0 1 12 10.32a1.62 1.62 0 0 1 1.191.488A1.62 1.62 0 0 1 13.68 12z" fill="#000"/></svg>
